X:120
T:Strike the Gay Harp
Z:Philippe Murphy 2006-05-25
S:Kevin Crawford, In Good Company
R:jig
M:6/8
L:1/8
K: D
d2B cBA | dAF FED | DdB cBA | dAF E3 |
def Bcd | ABA F2E | DED DEF | AFE EFA ::
d (3Bcd fdf | aba afe | def afa | bge edB |
def afa | bgb a2g | fed dfe | dAF FED ::
def dfe | dAF DFA | def dfe | dAF E3 |
def Bcd | ABA F2E | DED DEF | AFE EFA :|
